images_sifr_svg/cmd/32/gallery.svg

<svg height="32" viewBox="0 0 32 32" width="32" xmlns="http://www.w3.org/2000/svg"><path d="m3 4v24h26v-24zm2 2h22v14.224609l-2.5-3.224609-4.134766 4.025391-9.865234-11.025391-5.5 6.224609zm18 1a3 3 0 0 0 -3 3 3 3 0 0 0 3 3 3 3 0 0 0 3-3 3 3 0 0 0 -3-3zm0 1a2 2 0 0 1 2 2 2 2 0 0 1 -2 2 2 2 0 0 1 -2-2 2 2 0 0 1 2-2zm-12.5625 3.947266 8.982422 10.023437-3.919922 4.029297h-10.5v-7.5zm14.0625 6.9375 2.5 3.224609v3.890625h-9z" fill="#555753" stroke-width="1.33333"/></svg>

<?xml version="1.0" encoding="UTF-8" standalone="no"?>
<svg
   xmlns:dc="http://purl.org/dc/elements/1.1/"
   xmlns:cc="http://creativecommons.org/ns#"
   xmlns:rdf="http://www.w3.org/1999/02/22-rdf-syntax-ns#"
   xmlns:svg="http://www.w3.org/2000/svg"
   xmlns="http://www.w3.org/2000/svg"
   xmlns:sodipodi="http://sodipodi.sourceforge.net/DTD/sodipodi-0.dtd"
   xmlns:inkscape="http://www.inkscape.org/namespaces/inkscape"
   viewBox="0 0 32 32"
   version="1.1"
   id="svg8"
   sodipodi:docname="gallery.svg"
   width="32"
   height="32"
   inkscape:version="0.92.4 (unknown)">
  <metadata
     id="metadata14">
    <rdf:RDF>
      <cc:Work
         rdf:about="">
        <dc:format>image/svg+xml</dc:format>
        <dc:type
           rdf:resource="http://purl.org/dc/dcmitype/StillImage" />
        <dc:title></dc:title>
      </cc:Work>
    </rdf:RDF>
  </metadata>
  <defs
     id="defs12" />
  <sodipodi:namedview
     pagecolor="#ffffff"
     bordercolor="#666666"
     borderopacity="1"
     objecttolerance="10"
     gridtolerance="10"
     guidetolerance="10"
     inkscape:pageopacity="0"
     inkscape:pageshadow="2"
     inkscape:window-width="1360"
     inkscape:window-height="714"
     id="namedview10"
     showgrid="true"
     inkscape:zoom="9.8333333"
     inkscape:cx="14.149132"
     inkscape:cy="22.520855"
     inkscape:window-x="0"
     inkscape:window-y="28"
     inkscape:window-maximized="1"
     inkscape:current-layer="svg8">
    <inkscape:grid
       type="xygrid"
       id="grid821" />
  </sodipodi:namedview>
  <path
     inkscape:connector-curvature="0"
     id="path4"
     d="M 3,4 V 28 H 29 V 4 Z M 5,6 H 27 V 20.224609 L 24.5,17 20.365234,21.025391 10.5,10 5,16.224609 Z m 18,1 a 3,3 0 0 0 -3,3 3,3 0 0 0 3,3 3,3 0 0 0 3,-3 3,3 0 0 0 -3,-3 z m 0,1 a 2,2 0 0 1 2,2 2,2 0 0 1 -2,2 2,2 0 0 1 -2,-2 2,2 0 0 1 2,-2 z M 10.4375,11.947266 19.419922,21.970703 15.5,26 H 5 V 18.5 Z M 24.5,18.884766 27,22.109375 V 26 h -9 z"
     style="fill:#555753;stroke-width:1.33333004" />
</svg>
